X: 32142
T: Peter McArdle's Highland
R: strathspey
M: 4/4
K: Dmajor
|:(3GFE|D>F A2 G>Bd>G|A>df>d e2 e2|D>FA<D G>B d2|A>gf<e d2:|
(3cde|f>d e2 f>d B2|A>df<d e2- e>d|f>de>d f>dB<d|A>gf<e d2- d>e|
f2 e2 f>d (3Bcd|A>df<d e2- e>A|D>F (3AGF G>B (3dcB|A<g (3gfe d2||

